images/EXPERIENCIA-TOGGLE/CAPACITACION.svg

<svg width="29" height="23" viewBox="0 0 29 23" fill="none" xmlns="http://www.w3.org/2000/svg">
<path d="M28.999 7.70715C28.7644 8.25673 28.3222 8.56415 27.8083 8.81367C26.653 9.37273 25.5111 9.95915 24.3579 10.5224C24.1762 10.6109 24.1222 10.7151 24.1222 10.913C24.1295 13.0566 24.1202 15.2001 24.1326 17.3437C24.1347 17.6753 24.0361 17.9301 23.8264 18.1723C22.0482 20.2358 19.833 21.5529 17.1933 22.1099C14.6013 22.6563 12.0602 22.4552 9.59998 21.4339C7.81455 20.6938 6.29589 19.5736 5.04608 18.0807C4.88311 17.8859 4.81875 17.6817 4.81875 17.4279C4.82498 15.2465 4.81979 13.0639 4.82705 10.8825C4.82809 10.6824 4.771 10.5793 4.5883 10.495C4.09316 10.2655 3.60943 10.0128 3.08833 9.7528C3.07899 9.86019 3.06757 9.93915 3.06757 10.0181C3.06653 11.4436 3.06757 12.8702 3.06653 14.2958C3.06653 14.4305 3.06134 14.5369 3.21912 14.6211C3.79316 14.9264 4.09627 15.417 4.089 16.0824C4.0807 16.7436 3.77863 17.2279 3.20251 17.5364C3.17864 17.549 3.15892 17.5711 3.11428 17.608C3.60424 19.1883 4.09627 20.7759 4.59557 22.3878C3.19213 22.3878 1.81257 22.3878 0.404982 22.3878C0.90013 20.7896 1.39216 19.2009 1.88523 17.6111C1.73679 17.5037 1.58939 17.4163 1.46483 17.3037C0.620896 16.5425 0.748575 15.2233 1.72745 14.6558C1.8925 14.56 1.93921 14.4589 1.93817 14.2768C1.93195 12.6691 1.92779 11.0615 1.94129 9.45379C1.94336 9.21796 1.85305 9.12426 1.66828 9.03161C1.29043 8.84105 0.895978 8.66417 0.558613 8.41149C-0.192931 7.84823 -0.180475 6.96175 0.561727 6.38374C0.731967 6.25109 0.925043 6.14475 1.1202 6.05C4.95058 4.1907 8.77785 2.33035 12.6124 0.485791C13.9691 -0.166964 15.3435 -0.163805 16.7002 0.506847C20.3801 2.32614 24.0548 4.15596 27.7377 5.96893C28.2972 6.24477 28.7903 6.55851 29 7.19126C28.999 7.36287 28.999 7.53449 28.999 7.70715ZM1.00601 7.44184C1.2157 7.57976 1.34753 7.68399 1.49493 7.75979C1.77935 7.90719 2.06689 8.05248 2.36481 8.1704C2.53297 8.23672 2.72501 8.28305 2.90356 8.27357C3.27933 8.25357 3.65199 8.1904 4.02568 8.14513C5.39071 7.98089 6.75678 7.81559 8.12181 7.6524C9.32802 7.50711 10.5342 7.36393 11.7415 7.21864C12.602 7.11546 13.4615 7.00491 14.3231 6.91016C14.731 6.86489 14.9802 7.04176 15.0144 7.36393C15.0508 7.69346 14.8577 7.90824 14.4445 7.9693C14.0625 8.0251 13.6774 8.05985 13.2944 8.10512C12.0965 8.2462 10.8996 8.38623 9.70275 8.52836C8.47786 8.67365 7.25193 8.82104 6.02703 8.96739C5.51216 9.0295 4.99833 9.09267 4.40457 9.16532C4.56131 9.24428 4.64436 9.28534 4.7274 9.3264C7.49275 10.673 10.2581 12.0216 13.0255 13.363C14.0926 13.8799 15.1639 13.8852 16.2341 13.3545C18.7597 12.1048 21.2863 10.8593 23.8119 9.60961C25.0212 9.01055 26.2295 8.40939 27.4346 7.8019C27.6194 7.7082 27.7824 7.57028 28.0159 7.4113C27.8021 7.27023 27.6713 7.16178 27.5239 7.08914C23.7288 5.20563 19.9337 3.31896 16.1324 1.44913C15.1732 0.977462 14.1601 0.96167 13.2041 1.42176C9.27508 3.31264 5.36165 5.233 1.44407 7.14494C1.31327 7.20916 1.20012 7.30918 1.00601 7.44184ZM23.0551 11.1299C22.9129 11.1962 22.8195 11.2373 22.7281 11.2826C20.7247 12.2775 18.7192 13.265 16.721 14.2694C15.3144 14.9759 13.9131 14.959 12.5096 14.2821C10.419 13.2735 8.33253 12.2564 6.24398 11.2447C6.15471 11.2015 6.06336 11.1636 5.96371 11.1194C5.94918 11.1794 5.93672 11.2068 5.93672 11.2341C5.93569 13.2535 5.93257 15.2717 5.94088 17.2911C5.94088 17.4006 6.00316 17.5353 6.08101 17.6143C6.47443 18.0122 6.86058 18.4229 7.28722 18.7808C9.12352 20.3211 11.2567 21.1328 13.6193 21.3097C14.7103 21.3908 15.8023 21.3287 16.8808 21.096C19.258 20.5833 21.278 19.443 22.9015 17.6016C22.9897 17.5016 23.0468 17.3353 23.0479 17.1995C23.0582 15.5918 23.0541 13.9841 23.0541 12.3775C23.0551 11.9753 23.0551 11.5752 23.0551 11.1299Z" fill="white"/>
</svg>

<svg width="29" height="23" fill="none" xmlns="http://www.w3.org/2000/svg"><path d="M28.999 7.707c-.235.55-.677.857-1.19 1.107-1.156.559-2.298 1.145-3.451 1.708-.182.089-.236.193-.236.391.008 2.144-.002 4.287.01 6.43.003.332-.096.587-.306.83-1.778 2.063-3.993 3.38-6.633 3.937-2.592.546-5.133.345-7.593-.676a11.713 11.713 0 0 1-4.554-3.353.952.952 0 0 1-.227-.653c.006-2.182 0-4.364.008-6.546.001-.2-.056-.303-.239-.387-.495-.23-.979-.482-1.5-.742-.009.107-.02.186-.02.265l-.001 4.278c0 .135-.006.24.152.325.574.305.877.796.87 1.461-.008.662-.31 1.146-.886 1.454-.024.013-.044.035-.089.072l1.482 4.78H.405l1.48-4.777c-.148-.107-.296-.195-.42-.307-.844-.761-.716-2.08.262-2.648.165-.096.212-.197.211-.38a393.2 393.2 0 0 1 .003-4.822c.002-.236-.088-.33-.273-.422-.378-.191-.772-.368-1.11-.62-.75-.564-.738-1.45.004-2.028.17-.133.363-.24.558-.334C4.95 4.19 8.778 2.33 12.612.486c1.357-.653 2.732-.65 4.088.02 3.68 1.82 7.355 3.65 11.038 5.463.56.276 1.052.59 1.262 1.222l-.001.516ZM1.006 7.442c.21.138.342.242.489.318.284.147.572.292.87.41.168.067.36.113.539.104.375-.02.748-.084 1.122-.129 1.365-.164 2.73-.33 4.096-.493l3.62-.433c.86-.104 1.72-.214 2.581-.309.408-.045.657.132.691.454.037.33-.156.544-.57.605-.382.056-.767.09-1.15.136l-3.591.423-3.676.44-1.622.197c.156.08.24.12.322.161 2.766 1.347 5.531 2.696 8.298 4.037 1.068.517 2.139.522 3.21-.008 2.525-1.25 5.051-2.496 7.577-3.745 1.21-.6 2.418-1.2 3.623-1.808.184-.094.347-.232.58-.39-.213-.142-.344-.25-.491-.323-3.795-1.883-7.59-3.77-11.392-5.64-.959-.472-1.972-.487-2.928-.027-3.929 1.89-7.842 3.811-11.76 5.723-.13.064-.244.164-.438.297Zm22.05 3.688c-.143.066-.236.107-.328.153-2.003.995-4.009 1.982-6.007 2.986-1.407.707-2.808.69-4.211.013-2.091-1.008-4.177-2.026-6.266-3.037-.09-.043-.18-.081-.28-.126-.015.06-.027.088-.027.115-.001 2.02-.004 4.038.004 6.057 0 .11.062.244.14.323.393.398.78.809 1.206 1.167 1.837 1.54 3.97 2.352 6.332 2.529 1.091.08 2.183.019 3.262-.214 2.377-.513 4.397-1.653 6.02-3.494a.666.666 0 0 0 .147-.402c.01-1.608.006-3.216.006-4.822l.001-1.248Z" fill="#fff"/></svg>
